X:83
T:The Frost is all Over
B:Joyce, P. W.; "Old Irish Folk Music and Songs"
R:hornpipe
L:1/8
M:C
Z:Allan Garvin
K:G
ed|c2 cd cBAG|AGEF GABd|cdcA BGEG|ABcd e2 ed|
cBcd cBAG|A2 E2 G2 cB|ABAG EDEG|A2 A2 A2::E2|
ABcd edBd|e2 f2 g2 ed|eaac' bagb|aged e2 af|
gedB cBAG|EGAB c2 dB|ABAG EDEG|A2 A2 A2::
